(G-CODE GENERATED BY FLATCAM v8.96 - www.flatcam.org - Version Date: 2019/08/23)

(Name: viparTester.drl_cnc)
(Type: G-code from Excellon)
(Units: MM)

(Created on Sunday, 21 March 2021 at 12:00)

(Feedrate: 79.9998 mm/min)
(Feedrate rapids 800.0009 mm/min)

(Z_Cut: -1.8 mm)
(Z_Move: 1.999 mm)
(Z Toolchange: 12.7 mm)
(X,Y Toolchange: 0.0000, 0.0000 mm)
(Z Start: None mm)
(Z End: 12.7 mm)
(Steps per circle: 128)
(Postprocessor Excellon: default)

(X range:    2.1724 ...   37.8442  mm)
(Y range:    2.5526 ...   31.6204  mm)

(Spindle Speed: 1000.0 RPM)

G21
G90
G94

G01 F80.00
G00 Z1.9990

M03 S1000.0
G00 X4.8724 Y18.1000
G01 Z-1.8000
G01 Z0
G00 Z1.9990
G00 X6.1424 Y18.1000
G01 Z-1.8000
G01 Z0
G00 Z1.9990
G00 X7.4124 Y18.1000
G01 Z-1.8000
G01 Z0
G00 Z1.9990
M03 S1000.0
G00 X4.9131 Y11.6001
G01 Z-1.8000
G01 Z0
G00 Z1.9990
G00 X6.9121 Y11.6001
G01 Z-1.8000
G01 Z0
G00 Z1.9990
G00 X7.4124 Y25.1002
G01 Z-1.8000
G01 Z0
G00 Z1.9990
G00 X5.4135 Y25.1002
G01 Z-1.8000
G01 Z0
G00 Z1.9990
M03 S1000.0
G00 X2.6728 Y31.1200
G01 Z-1.8000
G01 Z0
G00 Z1.9990
G00 X5.3728 Y31.0997
G01 Z-1.8000
G01 Z0
G00 Z1.9990
G00 X7.9128 Y31.0997
G01 Z-1.8000
G01 Z0
G00 Z1.9990
G00 X10.9278 Y31.1200
G01 Z-1.8000
G01 Z0
G00 Z1.9990
G00 X29.5968 Y26.9290
G01 Z-1.8000
G01 Z0
G00 Z1.9990
G00 X32.1368 Y26.9290
G01 Z-1.8000
G01 Z0
G00 Z1.9990
G00 X34.6768 Y26.9290
G01 Z-1.8000
G01 Z0
G00 Z1.9990
G00 X37.2168 Y26.9290
G01 Z-1.8000
G01 Z0
G00 Z1.9990
G00 X37.3438 Y3.0530
G01 Z-1.8000
G01 Z0
G00 Z1.9990
G00 X34.8038 Y3.0530
G01 Z-1.8000
G01 Z0
G00 Z1.9990
G00 X32.2638 Y3.0530
G01 Z-1.8000
G01 Z0
G00 Z1.9990
G00 X29.7238 Y3.0530
G01 Z-1.8000
G01 Z0
G00 Z1.9990
G00 X30.4858 Y9.9110
G01 Z-1.8000
G01 Z0
G00 Z1.9990
G00 X27.9458 Y9.9110
G01 Z-1.8000
G01 Z0
G00 Z1.9990
G00 X25.4058 Y9.9110
G01 Z-1.8000
G01 Z0
G00 Z1.9990
G00 X22.8658 Y9.9110
G01 Z-1.8000
G01 Z0
G00 Z1.9990
G00 X20.3258 Y9.9110
G01 Z-1.8000
G01 Z0
G00 Z1.9990
G00 X17.7858 Y9.9110
G01 Z-1.8000
G01 Z0
G00 Z1.9990
G00 X14.7378 Y3.0530
G01 Z-1.8000
G01 Z0
G00 Z1.9990
G00 X12.1978 Y3.0530
G01 Z-1.8000
G01 Z0
G00 Z1.9990
G00 X9.6578 Y3.0530
G01 Z-1.8000
G01 Z0
G00 Z1.9990
M05
G00 Z12.70
G00 X0.0 Y0.0

M02