(G-CODE GENERATED BY FLATCAM v8.96 - www.flatcam.org - Version Date: 2019/08/23)

(Name: viparTester-Edge_Cuts.gbr_cutout_cnc)
(Type: G-code from Geometry)
(Units: MM)

(Created on Sunday, 21 March 2021 at 12:00)

(TOOL DIAMETER: 1.0 mm)
(Feedrate: 500.0 mm/min)
(Feedrate_Z: 100.0 mm/min)
(Feedrate rapids 79.9998 mm/min)

(Z_Cut: -1.7 mm)
(DepthPerCut: 0.6 mm <=>3 passes)
(Z_Move: 1.999 mm)
(Z Toolchange: 12.7 mm)
(X,Y Toolchange: 0.0000, 0.0000 mm)
(Z Start: None mm)
(Z End: 12.7 mm)
(Steps per circle: 128)
(Postprocessor Geometry: default)

(X range:    0.2887 ...   56.5369  mm)
(Y range:   -0.5241 ...   35.7241  mm)

(Spindle Speed: 1000 RPM)

G21
G90
G94

G01 F500.00
G00 Z1.9990

M03 S1000
G00 X0.2887 Y35.1000
G01 F100.00
G01 Z-0.6000
G01 F500.00
G01 X0.2894 Y35.1306
G01 X0.2917 Y35.1612
G01 X0.2954 Y35.1916
G01 X0.3007 Y35.2217
G01 X0.3074 Y35.2516
G01 X0.3155 Y35.2811
G01 X0.3252 Y35.3103
G01 X0.3362 Y35.3388
G01 X0.3486 Y35.3668
G01 X0.3624 Y35.3942
G01 X0.3775 Y35.4209
G01 X0.3939 Y35.4468
G01 X0.4115 Y35.4718
G01 X0.4303 Y35.4959
G01 X0.4504 Y35.5191
G01 X0.4715 Y35.5413
G01 X0.4937 Y35.5624
G01 X0.5169 Y35.5825
G01 X0.5410 Y35.6013
G01 X0.5660 Y35.6189
G01 X0.5919 Y35.6353
G01 X0.6186 Y35.6504
G01 X0.6459 Y35.6642
G01 X0.6740 Y35.6766
G01 X0.7025 Y35.6876
G01 X0.7317 Y35.6973
G01 X0.7612 Y35.7054
G01 X0.7910 Y35.7121
G01 X0.8212 Y35.7174
G01 X0.8516 Y35.7211
G01 X0.8822 Y35.7234
G01 X0.9055 Y35.7241
G01 X47.7584 Y35.7241
G01 X47.7890 Y35.7233
G01 X47.8339 Y35.7194
G01 X47.8654 Y35.7148
G01 X47.9094 Y35.7054
G01 X47.9396 Y35.6971
G01 X47.9821 Y35.6824
G01 X48.0104 Y35.6707
G01 X48.0392 Y35.6571
G01 X48.0652 Y35.6432
G01 X48.0914 Y35.6274
G01 X48.1296 Y35.6013
G01 X48.1652 Y35.5728
G01 X48.1991 Y35.5413
G01 X56.3545 Y27.3699
G01 X56.3852 Y27.3369
G01 X56.4054 Y27.3123
G01 X56.4317 Y27.2757
G01 X56.4485 Y27.2493
G01 X56.4707 Y27.2088
G01 X56.4894 Y27.1679
G01 X56.5006 Y27.1387
G01 X56.5142 Y27.0957
G01 X56.5219 Y27.0649
G01 X56.5303 Y27.0199
G01 X56.5353 Y26.9740
G01 X56.5369 Y26.9290
G01 X56.5369 Y6.6090
G01 X56.5359 Y6.5726
G01 X56.5319 Y6.5302
G01 X56.5271 Y6.4990
G01 X56.5182 Y6.4574
G01 X56.5092 Y6.4252
G01 X56.4985 Y6.3933
G01 X56.4824 Y6.3539
G01 X56.4687 Y6.3254
G01 X56.4451 Y6.2832
G01 X56.4302 Y6.2600
G01 X56.4141 Y6.2372
G01 X56.3838 Y6.1995
G01 X56.3520 Y6.1656
G01 X49.7137 Y-0.3505
G01 X49.6777 Y-0.3824
G01 X49.6384 Y-0.4122
G01 X49.5976 Y-0.4383
G01 X49.5733 Y-0.4518
G01 X49.5487 Y-0.4642
G01 X49.5032 Y-0.4835
G01 X49.4574 Y-0.4989
G01 X49.4305 Y-0.5061
G01 X49.4036 Y-0.5121
G01 X49.3558 Y-0.5197
G01 X49.3243 Y-0.5227
G01 X49.2818 Y-0.5241
G01 X0.9128 Y-0.5241
G01 X0.8822 Y-0.5234
G01 X0.8370 Y-0.5195
G01 X0.8055 Y-0.5148
G01 X0.7612 Y-0.5054
G01 X0.7317 Y-0.4973
G01 X0.6888 Y-0.4825
G01 X0.6593 Y-0.4703
G01 X0.6316 Y-0.4572
G01 X0.5919 Y-0.4353
G01 X0.5539 Y-0.4106
G01 X0.5283 Y-0.3916
G01 X0.4937 Y-0.3624
G01 X0.4604 Y-0.3299
G01 X0.4303 Y-0.2959
G01 X0.4029 Y-0.2599
G01 X0.3852 Y-0.2334
G01 X0.3624 Y-0.1942
G01 X0.3425 Y-0.1535
G01 X0.3303 Y-0.1240
G01 X0.3155 Y-0.0811
G01 X0.3037 Y-0.0361
G01 X0.2954 Y0.0084
G01 X0.2904 Y0.0535
G01 X0.2887 Y0.0927
G01 X0.2887 Y35.1000
G00 X0.2887 Y35.1000
G01 F100.00
G01 Z-1.2000
G01 F500.00
G01 X0.2894 Y35.1306
G01 X0.2917 Y35.1612
G01 X0.2954 Y35.1916
G01 X0.3007 Y35.2217
G01 X0.3074 Y35.2516
G01 X0.3155 Y35.2811
G01 X0.3252 Y35.3103
G01 X0.3362 Y35.3388
G01 X0.3486 Y35.3668
G01 X0.3624 Y35.3942
G01 X0.3775 Y35.4209
G01 X0.3939 Y35.4468
G01 X0.4115 Y35.4718
G01 X0.4303 Y35.4959
G01 X0.4504 Y35.5191
G01 X0.4715 Y35.5413
G01 X0.4937 Y35.5624
G01 X0.5169 Y35.5825
G01 X0.5410 Y35.6013
G01 X0.5660 Y35.6189
G01 X0.5919 Y35.6353
G01 X0.6186 Y35.6504
G01 X0.6459 Y35.6642
G01 X0.6740 Y35.6766
G01 X0.7025 Y35.6876
G01 X0.7317 Y35.6973
G01 X0.7612 Y35.7054
G01 X0.7910 Y35.7121
G01 X0.8212 Y35.7174
G01 X0.8516 Y35.7211
G01 X0.8822 Y35.7234
G01 X0.9055 Y35.7241
G01 X47.7584 Y35.7241
G01 X47.7890 Y35.7233
G01 X47.8339 Y35.7194
G01 X47.8654 Y35.7148
G01 X47.9094 Y35.7054
G01 X47.9396 Y35.6971
G01 X47.9821 Y35.6824
G01 X48.0104 Y35.6707
G01 X48.0392 Y35.6571
G01 X48.0652 Y35.6432
G01 X48.0914 Y35.6274
G01 X48.1296 Y35.6013
G01 X48.1652 Y35.5728
G01 X48.1991 Y35.5413
G01 X56.3545 Y27.3699
G01 X56.3852 Y27.3369
G01 X56.4054 Y27.3123
G01 X56.4317 Y27.2757
G01 X56.4485 Y27.2493
G01 X56.4707 Y27.2088
G01 X56.4894 Y27.1679
G01 X56.5006 Y27.1387
G01 X56.5142 Y27.0957
G01 X56.5219 Y27.0649
G01 X56.5303 Y27.0199
G01 X56.5353 Y26.9740
G01 X56.5369 Y26.9290
G01 X56.5369 Y6.6090
G01 X56.5359 Y6.5726
G01 X56.5319 Y6.5302
G01 X56.5271 Y6.4990
G01 X56.5182 Y6.4574
G01 X56.5092 Y6.4252
G01 X56.4985 Y6.3933
G01 X56.4824 Y6.3539
G01 X56.4687 Y6.3254
G01 X56.4451 Y6.2832
G01 X56.4302 Y6.2600
G01 X56.4141 Y6.2372
G01 X56.3838 Y6.1995
G01 X56.3520 Y6.1656
G01 X49.7137 Y-0.3505
G01 X49.6777 Y-0.3824
G01 X49.6384 Y-0.4122
G01 X49.5976 Y-0.4383
G01 X49.5733 Y-0.4518
G01 X49.5487 Y-0.4642
G01 X49.5032 Y-0.4835
G01 X49.4574 Y-0.4989
G01 X49.4305 Y-0.5061
G01 X49.4036 Y-0.5121
G01 X49.3558 Y-0.5197
G01 X49.3243 Y-0.5227
G01 X49.2818 Y-0.5241
G01 X0.9128 Y-0.5241
G01 X0.8822 Y-0.5234
G01 X0.8370 Y-0.5195
G01 X0.8055 Y-0.5148
G01 X0.7612 Y-0.5054
G01 X0.7317 Y-0.4973
G01 X0.6888 Y-0.4825
G01 X0.6593 Y-0.4703
G01 X0.6316 Y-0.4572
G01 X0.5919 Y-0.4353
G01 X0.5539 Y-0.4106
G01 X0.5283 Y-0.3916
G01 X0.4937 Y-0.3624
G01 X0.4604 Y-0.3299
G01 X0.4303 Y-0.2959
G01 X0.4029 Y-0.2599
G01 X0.3852 Y-0.2334
G01 X0.3624 Y-0.1942
G01 X0.3425 Y-0.1535
G01 X0.3303 Y-0.1240
G01 X0.3155 Y-0.0811
G01 X0.3037 Y-0.0361
G01 X0.2954 Y0.0084
G01 X0.2904 Y0.0535
G01 X0.2887 Y0.0927
G01 X0.2887 Y35.1000
G00 X0.2887 Y35.1000
G01 F100.00
G01 Z-1.7000
G01 F500.00
G01 X0.2894 Y35.1306
G01 X0.2917 Y35.1612
G01 X0.2954 Y35.1916
G01 X0.3007 Y35.2217
G01 X0.3074 Y35.2516
G01 X0.3155 Y35.2811
G01 X0.3252 Y35.3103
G01 X0.3362 Y35.3388
G01 X0.3486 Y35.3668
G01 X0.3624 Y35.3942
G01 X0.3775 Y35.4209
G01 X0.3939 Y35.4468
G01 X0.4115 Y35.4718
G01 X0.4303 Y35.4959
G01 X0.4504 Y35.5191
G01 X0.4715 Y35.5413
G01 X0.4937 Y35.5624
G01 X0.5169 Y35.5825
G01 X0.5410 Y35.6013
G01 X0.5660 Y35.6189
G01 X0.5919 Y35.6353
G01 X0.6186 Y35.6504
G01 X0.6459 Y35.6642
G01 X0.6740 Y35.6766
G01 X0.7025 Y35.6876
G01 X0.7317 Y35.6973
G01 X0.7612 Y35.7054
G01 X0.7910 Y35.7121
G01 X0.8212 Y35.7174
G01 X0.8516 Y35.7211
G01 X0.8822 Y35.7234
G01 X0.9055 Y35.7241
G01 X47.7584 Y35.7241
G01 X47.7890 Y35.7233
G01 X47.8339 Y35.7194
G01 X47.8654 Y35.7148
G01 X47.9094 Y35.7054
G01 X47.9396 Y35.6971
G01 X47.9821 Y35.6824
G01 X48.0104 Y35.6707
G01 X48.0392 Y35.6571
G01 X48.0652 Y35.6432
G01 X48.0914 Y35.6274
G01 X48.1296 Y35.6013
G01 X48.1652 Y35.5728
G01 X48.1991 Y35.5413
G01 X56.3545 Y27.3699
G01 X56.3852 Y27.3369
G01 X56.4054 Y27.3123
G01 X56.4317 Y27.2757
G01 X56.4485 Y27.2493
G01 X56.4707 Y27.2088
G01 X56.4894 Y27.1679
G01 X56.5006 Y27.1387
G01 X56.5142 Y27.0957
G01 X56.5219 Y27.0649
G01 X56.5303 Y27.0199
G01 X56.5353 Y26.9740
G01 X56.5369 Y26.9290
G01 X56.5369 Y6.6090
G01 X56.5359 Y6.5726
G01 X56.5319 Y6.5302
G01 X56.5271 Y6.4990
G01 X56.5182 Y6.4574
G01 X56.5092 Y6.4252
G01 X56.4985 Y6.3933
G01 X56.4824 Y6.3539
G01 X56.4687 Y6.3254
G01 X56.4451 Y6.2832
G01 X56.4302 Y6.2600
G01 X56.4141 Y6.2372
G01 X56.3838 Y6.1995
G01 X56.3520 Y6.1656
G01 X49.7137 Y-0.3505
G01 X49.6777 Y-0.3824
G01 X49.6384 Y-0.4122
G01 X49.5976 Y-0.4383
G01 X49.5733 Y-0.4518
G01 X49.5487 Y-0.4642
G01 X49.5032 Y-0.4835
G01 X49.4574 Y-0.4989
G01 X49.4305 Y-0.5061
G01 X49.4036 Y-0.5121
G01 X49.3558 Y-0.5197
G01 X49.3243 Y-0.5227
G01 X49.2818 Y-0.5241
G01 X0.9128 Y-0.5241
G01 X0.8822 Y-0.5234
G01 X0.8370 Y-0.5195
G01 X0.8055 Y-0.5148
G01 X0.7612 Y-0.5054
G01 X0.7317 Y-0.4973
G01 X0.6888 Y-0.4825
G01 X0.6593 Y-0.4703
G01 X0.6316 Y-0.4572
G01 X0.5919 Y-0.4353
G01 X0.5539 Y-0.4106
G01 X0.5283 Y-0.3916
G01 X0.4937 Y-0.3624
G01 X0.4604 Y-0.3299
G01 X0.4303 Y-0.2959
G01 X0.4029 Y-0.2599
G01 X0.3852 Y-0.2334
G01 X0.3624 Y-0.1942
G01 X0.3425 Y-0.1535
G01 X0.3303 Y-0.1240
G01 X0.3155 Y-0.0811
G01 X0.3037 Y-0.0361
G01 X0.2954 Y0.0084
G01 X0.2904 Y0.0535
G01 X0.2887 Y0.0927
G01 X0.2887 Y35.1000
G00 Z1.9990
M05
G00 Z1.9990
G00 Z12.70
G00 X0.0 Y0.0

M02